svg/私密文件夹-空状态.svg

<svg fill="none" viewBox="0 0 544 432"><g filter="url(#a)"><path fill="#EF7F4B" d="M16 38.806v346.388C16 399.998 28.002 412 42.806 412h458.388C515.998 412 528 399.998 528 385.194V93.473c0-14.805-12.002-26.806-26.806-26.806H260.603c-10.421 0-19.86-6.083-25.312-14.965C225.357 35.517 207.444 12 187.225 12H42.765C27.96 12 16 24.002 16 38.806"/><path fill="url(#b)" d="M528 127.52v248.673C528 390.998 515.998 403 501.194 403H42.806C28.002 403 16 390.998 16 376.193V127.519c0-14.805 11.962-26.806 26.767-26.806h135.411c45.571 0 39.204-.002 70.366 0 85.023.003 201.002.001 252.695 0 14.805 0 26.761 12.002 26.761 26.807"/><g clip-path="url(#c)" filter="url(#d)"><path fill="#FDBA74" fill-rule="evenodd" d="M364.622 122.858c-31.752 3.882-57.54 26.694-64.722 57.252-1.857 7.897-1.819 7.177-2.002 38.078l-.168 28.408-12.533.152c-11.211.136-12.692.21-14.043.71-6.387 2.364-11.271 7.727-12.506 13.734-.575 2.798-.453 141.179.127 143.471 1.645 6.506 7.074 11.938 13.575 13.584 2.733.693 198.119.693 200.852 0 6.464-1.637 11.797-6.919 13.427-13.297.823-3.218.964-140.938.148-144.162-1.266-5.007-5.117-9.871-9.517-12.022-4.015-1.962-4.515-2.019-17.709-2.019H447.7l-.11-28.332c-.118-30.372-.089-29.746-1.731-37.329-7.941-36.662-44.324-62.74-81.237-58.228m11.736 29.909c20.607 1.825 36.695 15.921 41.49 36.351.638 2.721.654 3.345.752 30.204l.1 27.425h-91.852l.105-27.425c.117-30.485-.009-28.491 2.23-35.283 5.662-17.173 21.46-29.652 39.574-31.261 3.863-.343 3.857-.343 7.601-.011m2.005 140.838c19.283 4.611 23.497 31.229 6.568 41.495l-1.887 1.144v15.145c0 15.133-.001 15.145-.657 15.844l-.657.699h-17.97l-.626-.796c-.614-.781-.626-1.078-.626-15.824v-15.027l-2.039-1.318c-21.584-13.955-7.139-47.348 17.894-41.362" clip-rule="evenodd"/></g></g><defs><filter id="a" width="544" height="432.246" x="0" y="0" color-interpolation-filters="sRGB" filterUnits="userSpaceOnUse"><feFlood flood-opacity="0" result="BackgroundImageFix"/><feColorMatrix in="SourceAlpha" result="hardAlpha" type="matrix" values="0 0 0 0 0 0 0 0 0 0 0 0 0 0 0 0 0 0 127 0"/><feOffset dy="4"/><feGaussianBlur stdDeviation="8"/><feComposite in2="hardAlpha" operator="out"/><feColorMatrix type="matrix" values="0 0 0 0 0 0 0 0 0 0 0 0 0 0 0 0 0 0 0.25 0"/><feBlend in2="BackgroundImageFix" mode="normal" result="effect1_dropShadow_2641_1747"/><feBlend in="SourceGraphic" in2="effect1_dropShadow_2641_1747" mode="normal" result="shape"/></filter><filter id="d" width="235.049" height="302.416" x="255.273" y="119.351" color-interpolation-filters="sRGB" filterUnits="userSpaceOnUse"><feFlood flood-opacity="0" result="BackgroundImageFix"/><feColorMatrix in="SourceAlpha" result="hardAlpha" type="matrix" values="0 0 0 0 0 0 0 0 0 0 0 0 0 0 0 0 0 0 127 0"/><feOffset dx="1" dy="-1"/><feGaussianBlur stdDeviation="1"/><feColorMatrix type="matrix" values="0 0 0 0 0.87451 0 0 0 0 0.643137 0 0 0 0 0.4 0 0 0 0.5 0"/><feBlend in2="BackgroundImageFix" mode="normal" result="effect1_dropShadow_2641_1747"/><feColorMatrix in="SourceAlpha" result="hardAlpha" type="matrix" values="0 0 0 0 0 0 0 0 0 0 0 0 0 0 0 0 0 0 127 0"/><feOffset dx="-1" dy="1"/><feGaussianBlur stdDeviation="1"/><feColorMatrix type="matrix" values="0 0 0 0 1 0 0 0 0 0.815686 0 0 0 0 0.509804 0 0 0 0.3 0"/><feBlend in2="effect1_dropShadow_2641_1747" mode="normal" result="effect2_dropShadow_2641_1747"/><feBlend in="SourceGraphic" in2="effect2_dropShadow_2641_1747" mode="normal" result="shape"/><feColorMatrix in="SourceAlpha" result="hardAlpha" type="matrix" values="0 0 0 0 0 0 0 0 0 0 0 0 0 0 0 0 0 0 127 0"/><feOffset dx="-3" dy="3"/><feGaussianBlur stdDeviation="4"/><feComposite in2="hardAlpha" k2="-1" k3="1" operator="arithmetic"/><feColorMatrix type="matrix" values="0 0 0 0 0.87451 0 0 0 0 0.643137 0 0 0 0 0.4 0 0 0 0.9 0"/><feBlend in2="shape" mode="normal" result="effect3_innerShadow_2641_1747"/><feColorMatrix in="SourceAlpha" result="hardAlpha" type="matrix" values="0 0 0 0 0 0 0 0 0 0 0 0 0 0 0 0 0 0 127 0"/><feOffset dx="3" dy="-3"/><feGaussianBlur stdDeviation="3"/><feComposite in2="hardAlpha" k2="-1" k3="1" operator="arithmetic"/><feColorMatrix type="matrix" values="0 0 0 0 1 0 0 0 0 0.815686 0 0 0 0 0.509804 0 0 0 0.9 0"/><feBlend in2="effect3_innerShadow_2641_1747" mode="normal" result="effect4_innerShadow_2641_1747"/><feColorMatrix in="SourceAlpha" result="hardAlpha" type="matrix" values="0 0 0 0 0 0 0 0 0 0 0 0 0 0 0 0 0 0 127 0"/><feOffset dx="-3" dy="-3"/><feGaussianBlur stdDeviation="3"/><feComposite in2="hardAlpha" k2="-1" k3="1" operator="arithmetic"/><feColorMatrix type="matrix" values="0 0 0 0 0.87451 0 0 0 0 0.643137 0 0 0 0 0.4 0 0 0 0.2 0"/><feBlend in2="effect4_innerShadow_2641_1747" mode="normal" result="effect5_innerShadow_2641_1747"/><feColorMatrix in="SourceAlpha" result="hardAlpha" type="matrix" values="0 0 0 0 0 0 0 0 0 0 0 0 0 0 0 0 0 0 127 0"/><feOffset dx="3" dy="3"/><feGaussianBlur stdDeviation="3"/><feComposite in2="hardAlpha" k2="-1" k3="1" operator="arithmetic"/><feColorMatrix type="matrix" values="0 0 0 0 0.87451 0 0 0 0 0.643137 0 0 0 0 0.4 0 0 0 0.2 0"/><feBlend in2="effect5_innerShadow_2641_1747" mode="normal" result="effect6_innerShadow_2641_1747"/></filter><linearGradient id="b" x1="528" x2="51.871" y1="100.712" y2="451.665" gradientUnits="userSpaceOnUse"><stop offset=".234" stop-color="#FFB76D"/><stop offset="1" stop-color="#EF7F4B"/></linearGradient><clipPath id="c"><rect width="512" height="326" x="16" y="77" fill="white" rx="25.466"/></clipPath></defs></svg>

<svg width="544" height="432" viewBox="0 0 544 432" fill="none" xmlns="http://www.w3.org/2000/svg">
<g filter="url(#filter0_d_2641_1747)">
<path d="M16 38.8063V385.194C16 399.998 28.0016 412 42.8063 412H501.194C515.998 412 528 399.998 528 385.194V93.4729C528 78.6682 515.998 66.6667 501.194 66.6667H260.603C250.182 66.6667 240.743 60.5842 235.291 51.7023C225.357 35.5173 207.444 12 187.225 12H42.7644C27.9597 12 16 24.0016 16 38.8063Z" fill="#EF7F4B"/>
<path d="M528 127.52V376.193C528 390.998 515.998 403 501.194 403H42.8063C28.0016 403 16 390.998 16 376.193V127.519C16 112.714 27.962 100.713 42.7667 100.713H178.178C223.749 100.713 217.382 100.711 248.544 100.713C333.567 100.716 449.546 100.714 501.239 100.713C516.044 100.713 528 112.715 528 127.52Z" fill="url(#paint0_linear_2641_1747)"/>
<g clip-path="url(#clip0_2641_1747)">
<g filter="url(#filter1_ddiiii_2641_1747)">
<path fill-rule="evenodd" clip-rule="evenodd" d="M364.622 122.858C332.87 126.74 307.082 149.552 299.9 180.11C298.043 188.007 298.081 187.287 297.898 218.188L297.73 246.596L285.197 246.748C273.986 246.884 272.505 246.958 271.154 247.458C264.767 249.822 259.883 255.185 258.648 261.192C258.073 263.99 258.195 402.371 258.775 404.663C260.42 411.169 265.849 416.601 272.35 418.247C275.083 418.94 470.469 418.94 473.202 418.247C479.666 416.61 484.999 411.328 486.629 404.95C487.452 401.732 487.593 264.012 486.777 260.788C485.511 255.781 481.66 250.917 477.26 248.766C473.245 246.804 472.745 246.747 459.551 246.747H447.7L447.59 218.415C447.472 188.043 447.501 188.669 445.859 181.086C437.918 144.424 401.535 118.346 364.622 122.858ZM376.358 152.767C396.965 154.592 413.053 168.688 417.848 189.118C418.486 191.839 418.502 192.463 418.6 219.322L418.7 246.747H372.774H326.848L326.953 219.322C327.07 188.837 326.944 190.831 329.183 184.039C334.845 166.866 350.643 154.387 368.757 152.778C372.62 152.435 372.614 152.435 376.358 152.767ZM378.363 293.605C397.646 298.216 401.86 324.834 384.931 335.1L383.044 336.244V351.389C383.044 366.522 383.043 366.534 382.387 367.233L381.73 367.932H372.745H363.76L363.134 367.136C362.52 366.355 362.508 366.058 362.508 351.312V336.285L360.469 334.967C338.885 321.012 353.33 287.619 378.363 293.605Z" fill="#FDBA74"/>
</g>
</g>
</g>
<defs>
<filter id="filter0_d_2641_1747" x="0" y="0" width="544" height="432.246" filterUnits="userSpaceOnUse" color-interpolation-filters="sRGB">
<feFlood flood-opacity="0" result="BackgroundImageFix"/>
<feColorMatrix in="SourceAlpha" type="matrix" values="0 0 0 0 0 0 0 0 0 0 0 0 0 0 0 0 0 0 127 0" result="hardAlpha"/>
<feOffset dy="4"/>
<feGaussianBlur stdDeviation="8"/>
<feComposite in2="hardAlpha" operator="out"/>
<feColorMatrix type="matrix" values="0 0 0 0 0 0 0 0 0 0 0 0 0 0 0 0 0 0 0.25 0"/>
<feBlend mode="normal" in2="BackgroundImageFix" result="effect1_dropShadow_2641_1747"/>
<feBlend mode="normal" in="SourceGraphic" in2="effect1_dropShadow_2641_1747" result="shape"/>
</filter>
<filter id="filter1_ddiiii_2641_1747" x="255.273" y="119.351" width="235.049" height="302.416" filterUnits="userSpaceOnUse" color-interpolation-filters="sRGB">
<feFlood flood-opacity="0" result="BackgroundImageFix"/>
<feColorMatrix in="SourceAlpha" type="matrix" values="0 0 0 0 0 0 0 0 0 0 0 0 0 0 0 0 0 0 127 0" result="hardAlpha"/>
<feOffset dx="1" dy="-1"/>
<feGaussianBlur stdDeviation="1"/>
<feColorMatrix type="matrix" values="0 0 0 0 0.87451 0 0 0 0 0.643137 0 0 0 0 0.4 0 0 0 0.5 0"/>
<feBlend mode="normal" in2="BackgroundImageFix" result="effect1_dropShadow_2641_1747"/>
<feColorMatrix in="SourceAlpha" type="matrix" values="0 0 0 0 0 0 0 0 0 0 0 0 0 0 0 0 0 0 127 0" result="hardAlpha"/>
<feOffset dx="-1" dy="1"/>
<feGaussianBlur stdDeviation="1"/>
<feColorMatrix type="matrix" values="0 0 0 0 1 0 0 0 0 0.815686 0 0 0 0 0.509804 0 0 0 0.3 0"/>
<feBlend mode="normal" in2="effect1_dropShadow_2641_1747" result="effect2_dropShadow_2641_1747"/>
<feBlend mode="normal" in="SourceGraphic" in2="effect2_dropShadow_2641_1747" result="shape"/>
<feColorMatrix in="SourceAlpha" type="matrix" values="0 0 0 0 0 0 0 0 0 0 0 0 0 0 0 0 0 0 127 0" result="hardAlpha"/>
<feOffset dx="-3" dy="3"/>
<feGaussianBlur stdDeviation="4"/>
<feComposite in2="hardAlpha" operator="arithmetic" k2="-1" k3="1"/>
<feColorMatrix type="matrix" values="0 0 0 0 0.87451 0 0 0 0 0.643137 0 0 0 0 0.4 0 0 0 0.9 0"/>
<feBlend mode="normal" in2="shape" result="effect3_innerShadow_2641_1747"/>
<feColorMatrix in="SourceAlpha" type="matrix" values="0 0 0 0 0 0 0 0 0 0 0 0 0 0 0 0 0 0 127 0" result="hardAlpha"/>
<feOffset dx="3" dy="-3"/>
<feGaussianBlur stdDeviation="3"/>
<feComposite in2="hardAlpha" operator="arithmetic" k2="-1" k3="1"/>
<feColorMatrix type="matrix" values="0 0 0 0 1 0 0 0 0 0.815686 0 0 0 0 0.509804 0 0 0 0.9 0"/>
<feBlend mode="normal" in2="effect3_innerShadow_2641_1747" result="effect4_innerShadow_2641_1747"/>
<feColorMatrix in="SourceAlpha" type="matrix" values="0 0 0 0 0 0 0 0 0 0 0 0 0 0 0 0 0 0 127 0" result="hardAlpha"/>
<feOffset dx="-3" dy="-3"/>
<feGaussianBlur stdDeviation="3"/>
<feComposite in2="hardAlpha" operator="arithmetic" k2="-1" k3="1"/>
<feColorMatrix type="matrix" values="0 0 0 0 0.87451 0 0 0 0 0.643137 0 0 0 0 0.4 0 0 0 0.2 0"/>
<feBlend mode="normal" in2="effect4_innerShadow_2641_1747" result="effect5_innerShadow_2641_1747"/>
<feColorMatrix in="SourceAlpha" type="matrix" values="0 0 0 0 0 0 0 0 0 0 0 0 0 0 0 0 0 0 127 0" result="hardAlpha"/>
<feOffset dx="3" dy="3"/>
<feGaussianBlur stdDeviation="3"/>
<feComposite in2="hardAlpha" operator="arithmetic" k2="-1" k3="1"/>
<feColorMatrix type="matrix" values="0 0 0 0 0.87451 0 0 0 0 0.643137 0 0 0 0 0.4 0 0 0 0.2 0"/>
<feBlend mode="normal" in2="effect5_innerShadow_2641_1747" result="effect6_innerShadow_2641_1747"/>
</filter>
<linearGradient id="paint0_linear_2641_1747" x1="528" y1="100.712" x2="51.8707" y2="451.665" gradientUnits="userSpaceOnUse">
<stop offset="0.234375" stop-color="#FFB76D"/>
<stop offset="1" stop-color="#EF7F4B"/>
</linearGradient>
<clipPath id="clip0_2641_1747">
<rect x="16" y="77" width="512" height="326" rx="25.466" fill="white"/>
</clipPath>
</defs>
</svg>
